X:1
T:Title
%%score ( 1 2 ) ( 3 4 )
L:1/8
Q:1/4=100
M:4/4
K:Ab
V:1 treble nm="Midi_20"
V:2 treble 
V:3 bass nm="Midi_20"
V:4 bass 
V:1
"^Battle (10 10. 10 10. 10 10)""^Henry Lawes\n(1596-1662)" A4 A2 G2 | F2 G2 =E2 G2 | A2 B2 c4 || %3
 c4 B2 c2 | A2 B2 G2 A2 | B2 B2 A4 |: E4 F2 G2 | A2 G2 F2 B2 | B2 =A2 B4 | G4 A2 B2 | c2 d2 B2 c2 | %11
 A2 G2 F4 :| %12
V:2
 C4 C2 C2 | D2 D2 C2 C2 | C2 F2 =E4 || _E4 E2 E2 | C2 D2 B,2 E2 | E2 ED C4 |: C4 F2 =E2 | %7
 F2 _E2 D2 F2 | F2 F2 F4 | E4 E2 D2 | C2 F2 F2 =E2 | F2 =E2 F4 :| %12
V:3
 F,4 F,2 G,2 | A,2 G,2 G,2 G,2 | F,2 F,2 G,4 || A,4 G,2 G,2 | F,2 F,2 E,2 A,2 | A,2 G,2 A,4 |: %6
 A,4 C2 B,2 | A,2 C2 A,2 D2 | C2 C2 =D4 | B,4 A,2 F,G, | A,2 F,2 F,2 G,2 | A,2 CB, A,4 :| %12
V:4
 F,,4 F,2 E,2 | D,2 B,,2 C,2 =E,2 | F,2 D,2 C,4 || A,,4 E,2 C,2 | F,2 B,,2 E,2 C,2 | %5
 E,2 E,2 A,,4 |: A,,4 A,,2 G,,2 | F,,2 C,2 D,2 B,,2 | F,2 F,,2 B,,4 | E,4 C,2 B,,2 | %10
 A,,2 B,,2 D,2 C,2 | F,2 C,2 F,,4 :| %12

